X:1
T:Title
%%score [ ( 1 2 ) ( 3 4 ) ]
L:1/8
Q:1/4=120
M:4/4
K:G
V:1 treble nm="MusicXML Part"
V:2 treble 
V:3 bass nm="MusicXML Part"
V:4 bass 
V:1
"^1.""^2." z8 | [Dd]2 [Dc]2 [DB]2 [DA]2 | [DG]2 [DG]2 [DA]2 [DB]2 | [DB]3 [DA] [DA]4 | %4
w: |we a- dore thee,|God of glo- ry,|Lord of love!|
w: |joy sur- round thee,|Earth and heaven re-|flect thy rays,|
w: |and for- giv- ing,|Ev- er bless- ing,|ev- er blest,|
w: |hap- py cho- rus,|Which the morn- ing|stars be- gan;|
 [DB]2 [DB]2 [Ec]2 [=Fd]2 | [=Fd]2 [Ec]2 [EB]2 [EA]2 | [DG]2 [DG]2 [FA]2 [GB]2 | [FA]3 [DG] [DG]4 | %8
w: Hearts un- fold like|flow'rs be- fore thee,|Open- ing to the|sun a- bove.|
w: Stars and an- gels|sing a- round thee,|Cen- ter of un-|bro- ken praise.|
w: Well- spring of the|joy of liv- ing,|O- cean depth of|hap- py rest!|
w: Fa- ther love is|reign- ing o'er us,|Broth- er love binds|man to man.|
 [DA]2 [DA]2 [DB]2 [DG]2 | [DA]2 B c [DB]2 [DG]2 | [DA]2 B c [FB]2 [^DA]2 | [B,G]2 [^CA]2 D4 | %12
w: Melt the clouds of|sin * * sad- ness,|Drive * * dark of|doubt a- *|
w: Field and for- est,|vale * * moun- tain,|Flow- * * mead- ow,|flash- ing *|
w: Thou our Fa- ther,|Christ * * Broth- er,|All * * live in|love are *|
w: Ev- er wing- ing,|march * * on- ward,|Vic- tors * in the|midst of *|
 [DB]2 [DB]2 [Ec]2 [=Fd]2 | [=Fd]2 [Ec]2 [EB]2 [EA]2 | [DG]2 [B,G]2 [CA]2 [B,B]2 | %15
w: Gi- ver of im-|mor- tal glad- ness,|Fill- us with the|
w: Chant- ing bird and|flow- ing foun- tain,|Call us to re-|
w: Teach us how to|love each oth- er,|Lift us to the|
w: Joy- ful mu- sic|leads us sun- ward|in the tri- umph|
 [CA]3 [B,G] [B,G]4 |] z8 | %17
w: light of day.||
w: joice in thee.||
w: joy di- vine.||
w: song of life.||
V:2
 x8 | x8 | x8 | x8 | x8 | x8 | x8 | x8 | x8 | x2 D2 x4 | x2 D2 x4 | x4 D4 | x8 | x8 | x8 | x8 |] %16
w: |||||||||and|the|way;|||||
w: |||||||||and|ery|sea,|||||
w: |||||||||our|who|thine;|||||
w: |||||||||we||strife,|||||
 x8 | %17
w: |
w: |
w: |
w: |
V:3
"^3.""^4." G,2 G,2 [G,A,]2 [G,B,]2 | [D,B,]2 [D,A,]2 [D,G,]2 [C,F,]2 | %2
 [B,,G,]2 [B,,G,]2 [A,,F,]2 [G,,G,]2 | [D,G,]3 [D,F,] [D,F,]4 | G,2 G,2 G,2 [G,B,]2 | %5
 [C,B,]2 [C,C]2 [C,D]2 [C,C]2 | [D,B,]2 [D,B,]2 [D,C]2 [D,D]2 | [D,C]3 [G,B,] [G,B,]4 | %8
 [D,F,]2 [D,F,]2 [D,G,]2 [D,B,]2 | [D,F,]2 G, A, [D,G,]2 [D,B,]2 | %10
 [D,F,]2 G, A, [^D,F,]2 [B,,F,]2 | E,2 [A,,E,]2 [D,F,]4 | G,2 G,2 G,2 A, B, | %13
 [C,B,]2 [C,C]2 [C,D]2 [C,C]2 | [D,B,]2 [D,G,]2 [D,F,]2 [D,G,]2 | [D,F,]3 [G,,G,] [G,,G,]4 |] z8 | %17
V:4
 x8 | x8 | x8 | x8 | x8 | x8 | x8 | x8 | x8 | x2 D,2 x4 | x2 D,2 x4 | E,2 x6 | x6 G,2 | x8 | x8 | %15
 x8 |] x8 | %17

